X:1
T:Julia Delaney
R:reel
D:Paddy Glackin: Ceol ar an bhFidil le Paddy Glackin.
D:Bothy Band 1975.
Z:id:hn-reel-78
M:4/4
L:1/8
K:Ddor
dcAG ~F3D|~E3C ~F3A|dcAG FDFG|Addc defe|
dcAG ~F3D|~E3C ~F3A|dcAG FDFG|Addc d2de:|
fede fagf|ecgc acgc|fede fagf|fedc Adde|
fede fagf|ecgc acgc|fedf edce|Addc d2de:|
